X:1
T:Title
%%score { ( 1 3 ) | 2 }
L:1/8
M:6/8
K:Bb
V:1 treble nm="Grand Piano"
V:3 treble 
V:2 bass 
V:1
 z3 z2[Q:1/4=78] [DF] | [DF][B,D][DF] [DB][Fd][Fc] | [GB][FA][EG] [DF]2 [DF] | BBB [=EB][EA][EB] | %4
 [Ec]3- [Ec]2 [EF] | [DF][B,D][DF] [DB][Fd][Fc] | [GB][FA][EG] [DF]2 [DF] |[M:13/16] GcBAd3/2c | %8
[M:5/8] [DB]-[DB]- [DB]3 |[M:1/8] [DF] |[M:3/4] [Fd][Fd] [Fd][Gc] [GB][EG] | [DF]6 | %12
 [Fd][Fd] [Fd][=Ed] [Ec][EG] | [Ec]6 | [DF][B,D] [DF][DB] [Fd][Fc] | [GB][FA] [EG] [DF]2 [DF] | %16
[M:13/16] GcBAd3/2c |[M:5/8] [DB]-[DB]- [DB]3 |] %18
V:2
 z3 z2 [B,,B,] | [B,,B,][B,,F,][B,,B,] [B,,B,][B,,B,][D,B,] | [E,B,][E,B,][E,B,] [B,,B,]2 [B,,B,] | %3
 [B,D][B,D][B,D] [C,B,][C,C][C,B,] | [F,A,]3- [F,A,]2 [F,A,] | %5
 [B,,B,][B,,F,][B,,B,] [B,,B,][B,,B,][D,B,] | [E,B,][E,B,][E,B,] [B,,B,]2 [B,,B,] | %7
[M:13/16] [E,B,E][E,G,E][E,G,E][F,CE][F,A,F]3/2[F,A,E] |[M:5/8] [B,,B,]-[B,,B,]- [B,,B,]3 | %9
[M:1/8] [B,,B,] |[M:3/4] [B,,B,][B,,B,] [B,,B,][E,B,] [E,B,][E,B,] | [B,,B,]2 B,, B,,2 [B,,B,] | %12
 [B,,B,][B,,B,] [B,,B,][C,G,] [C,G,][C,B,] | [F,A,]2 F, F,2 [F,A,E] | %14
 [B,,B,][B,,F,] [B,,B,][B,,B,] [B,,B,][D,B,] | [E,B,][E,B,] [E,B,] [B,,B,]2 [B,,B,] | %16
[M:13/16] [E,B,E][E,G,E][E,G,E][F,CE][F,A,F]3/2[F,A,E] |[M:5/8] [B,,B,]-[B,,B,]- [B,,B,]3 |] %18
V:3
 x6 | x6 | x6 | x6 | x6 | x6 | x6 |[M:13/16] x13/2 |[M:5/8] x5 |[M:1/8] x |[M:3/4] x6 | %11
 z2 B, B,2 [DF] | x6 | z2 A, A,2 F | x6 | x6 |[M:13/16] x13/2 |[M:5/8] x5 |] %18

